assets/svg/discord.svg

<svg xmlns="http://www.w3.org/2000/svg" version="1.0" viewBox="0 0 245 240">
  <g fill="#fff">
    <path d="M49.5 21.2a22.4 22.4 0 00-11.75 10.1l-2.25 4.2V182.65l3.05 4.95a21.63 21.63 0 007.5 7.4l4.45 2.5 59.75.3c48.1.2 59.75 0 59.75-1 0-.75-.85-4.35-1.95-8.05-2.4-8.4-2.6-8.45 8 1.65a946 946 0 0021.65 19.7l12.8 11.3.25-92.95.25-92.95-2.3-4.5c-1.55-3.05-3.9-5.45-7.2-7.5l-4.85-3-72.05-.2c-48.8-.1-73.05.2-75.1.9zm52.95 48.75c-8 2.85-21.3 10.5-20.2 11.65.2.2 4.3-1.2 9.05-3.1 23.8-9.6 42.2-8.8 71.7 3.25 1.05.4.9-.1-.45-1.65-1.65-1.85-11.65-7.2-20.55-10.9l-2.5-1.05 2.65-.1c4.15-.1 14.45 3.45 20.35 7.05 8.7 5.25 16.65 27.65 19.1 53.7l.65 7.25-4.3 4.1c-5 4.75-12.15 8.35-19.9 9.95l-5.4 1.1-2.8-3.35c-3.6-4.3-3.6-4.3 1.5-6.25 4.4-1.65 13.45-9.1 12.4-10.15-.3-.35-3.2.75-6.5 2.4-21.35 10.8-47.25 10.65-67.15-.45-2.4-1.35-4.65-2.2-4.95-1.9-1 1 5.15 6.4 10.5 9.2 6.2 3.25 6.1 2.85 2.4 7.15l-2.85 3.35-5.85-1.2c-7.45-1.55-16.55-6.35-20.5-10.85-5.4-6.1-1.85-28.95 8.3-53.7C80.4 77.5 85.3 73.6 96.7 69.95c7.7-2.45 12.65-2.45 5.75 0z"/>
    <path d="M100.1 105.4c-5.85 3.25-7.1 13.75-2.2 18.7 5.65 5.6 15.8 2.95 17.7-4.55 2.55-10.3-6.9-18.9-15.5-14.15zM137.25 105.05c-3.8 1.5-6.45 6.8-5.9 11.9 1.25 12.2 17.5 13.85 20.65 2.1 2.6-9.75-5.7-17.65-14.75-14z"/>
  </g>
</svg>

<?xml version="1.0" encoding="UTF-8" standalone="no"?>
<!DOCTYPE svg PUBLIC "-//W3C//DTD SVG 1.1//EN" "http://www.w3.org/Graphics/SVG/1.1/DTD/svg11.dtd">
<svg width="100%" height="100%" viewBox="0 0 245 240" version="1.1" xmlns="http://www.w3.org/2000/svg" xmlns:xlink="http://www.w3.org/1999/xlink" xml:space="preserve" xmlns:serif="http://www.serif.com/" style="fill-rule:evenodd;clip-rule:evenodd;stroke-linejoin:round;stroke-miterlimit:2;">
    <g transform="matrix(1.13565,0,0,1.13565,-17.4686,-17.2324)">
        <path d="M49.5,21.2C44.508,23.061 40.34,26.644 37.75,31.3L35.5,35.5L35.5,182.65L38.55,187.6C40.402,190.647 42.978,193.189 46.05,195L50.5,197.5L110.25,197.8C158.35,198 170,197.8 170,196.8C170,196.05 169.15,192.45 168.05,188.75C165.65,180.35 165.45,180.3 176.05,190.4C183.165,197.078 190.382,203.645 197.7,210.1L210.5,221.4L211,35.5L208.7,31C207.15,27.95 204.8,25.55 201.5,23.5L196.65,20.5L124.6,20.3C75.8,20.2 51.55,20.5 49.5,21.2ZM102.45,69.95C94.45,72.8 81.15,80.45 82.25,81.6C82.45,81.8 86.55,80.4 91.3,78.5C115.1,68.9 133.5,69.7 163,81.75C164.05,82.15 163.9,81.65 162.55,80.1C160.9,78.25 150.9,72.9 142,69.2L139.5,68.15L142.15,68.05C146.3,67.95 156.6,71.5 162.5,75.1C171.2,80.35 179.15,102.75 181.6,128.8L182.25,136.05L177.95,140.15C172.95,144.9 165.8,148.5 158.05,150.1L152.65,151.2L149.85,147.85C146.25,143.55 146.25,143.55 151.35,141.6C155.75,139.95 164.8,132.5 163.75,131.45C163.45,131.1 160.55,132.2 157.25,133.85C135.9,144.65 110,144.5 90.1,133.4C87.7,132.05 85.45,131.2 85.15,131.5C84.15,132.5 90.3,137.9 95.65,140.7C101.85,143.95 101.75,143.55 98.05,147.85L95.2,151.2L89.35,150C81.9,148.45 72.8,143.65 68.85,139.15C63.45,133.05 67,110.2 77.15,85.45C80.4,77.5 85.3,73.6 96.7,69.95C104.4,67.5 109.35,67.5 102.45,69.95Z" style="fill:white;fill-rule:nonzero;"/>
        <path d="M100.1,105.4C94.25,108.65 93,119.15 97.9,124.1C103.55,129.7 113.7,127.05 115.6,119.55C118.15,109.25 108.7,100.65 100.1,105.4ZM137.25,105.05C133.45,106.55 130.8,111.85 131.35,116.95C132.6,129.15 148.85,130.8 152,119.05C154.6,109.3 146.3,101.4 137.25,105.05Z" style="fill:white;fill-rule:nonzero;"/>
    </g>
</svg>
